src/activities/railroad/resource/loco8.svg

<?xml version="1.0" encoding="UTF-8" standalone="no"?>
<!-- Created with Inkscape (http://www.inkscape.org/) -->

<svg
   xmlns:dc="http://purl.org/dc/elements/1.1/"
   xmlns:cc="http://creativecommons.org/ns#"
   xmlns:rdf="http://www.w3.org/1999/02/22-rdf-syntax-ns#"
   xmlns:svg="http://www.w3.org/2000/svg"
   xmlns="http://www.w3.org/2000/svg"
   xmlns:xlink="http://www.w3.org/1999/xlink"
   xmlns:sodipodi="http://sodipodi.sourceforge.net/DTD/sodipodi-0.dtd"
   xmlns:inkscape="http://www.inkscape.org/namespaces/inkscape"
   width="240"
   height="100"
   viewBox="0 0 63.499999 26.458334"
   version="1.1"
   id="svg8"
   inkscape:version="0.92.1 r15371"
   sodipodi:docname="loco8.svg">
  <defs
     id="defs2">
    <linearGradient
       gradientTransform="scale(0.26458333)"
       inkscape:collect="always"
       xlink:href="#linearGradient914"
       id="linearGradient916"
       x1="202.14369"
       y1="61.500278"
       x2="202.14369"
       y2="70.621521"
       gradientUnits="userSpaceOnUse" />
    <linearGradient
       inkscape:collect="always"
       id="linearGradient914">
      <stop
         style="stop-color:#e2d1bc;stop-opacity:1"
         offset="0"
         id="stop910" />
      <stop
         style="stop-color:#e2d4bc;stop-opacity:0.64313728"
         offset="1"
         id="stop912" />
    </linearGradient>
  </defs>
  <sodipodi:namedview
     id="base"
     pagecolor="#ffffff"
     bordercolor="#666666"
     borderopacity="1.0"
     inkscape:pageopacity="0.0"
     inkscape:pageshadow="2"
     inkscape:zoom="1.979899"
     inkscape:cx="4.2913378"
     inkscape:cy="2.362052"
     inkscape:document-units="mm"
     inkscape:current-layer="layer2"
     showgrid="false"
     units="px"
     inkscape:window-width="1884"
     inkscape:window-height="1051"
     inkscape:window-x="0"
     inkscape:window-y="0"
     inkscape:window-maximized="1"
     inkscape:snap-global="false" />
  <metadata
     id="metadata5">
    <rdf:RDF>
      <cc:Work
         rdf:about="">
        <dc:format>image/svg+xml</dc:format>
        <dc:type
           rdf:resource="http://purl.org/dc/dcmitype/StillImage" />
        <dc:title />
        <dc:date>2018</dc:date>
        <dc:creator>
          <cc:Agent>
            <dc:title>Timothée Giet</dc:title>
          </cc:Agent>
        </dc:creator>
        <cc:license
           rdf:resource="http://creativecommons.org/licenses/by-sa/4.0/" />
      </cc:Work>
      <cc:License
         rdf:about="http://creativecommons.org/licenses/by-sa/4.0/">
        <cc:permits
           rdf:resource="http://creativecommons.org/ns#Reproduction" />
        <cc:permits
           rdf:resource="http://creativecommons.org/ns#Distribution" />
        <cc:requires
           rdf:resource="http://creativecommons.org/ns#Notice" />
        <cc:requires
           rdf:resource="http://creativecommons.org/ns#Attribution" />
        <cc:permits
           rdf:resource="http://creativecommons.org/ns#DerivativeWorks" />
        <cc:requires
           rdf:resource="http://creativecommons.org/ns#ShareAlike" />
      </cc:License>
    </rdf:RDF>
  </metadata>
  <g
     inkscape:groupmode="layer"
     id="layer2"
     inkscape:label="Calque 2">
    <path
       inkscape:connector-curvature="0"
       style="opacity:1;vector-effect:none;fill:#4a4a43;fill-opacity:1;stroke:none;stroke-width:0.34905761;stroke-linecap:butt;stroke-linejoin:miter;stroke-miterlimit:4;stroke-dasharray:none;stroke-dashoffset:0;stroke-opacity:1"
       d="m 4.8756731,18.369421 v 2.173511 H 1.152901 V 21.20439 H 0 v -0.661458 -2.022099 -0.151412 z"
       id="rect849-3"
       sodipodi:nodetypes="ccccccccc" />
    <circle
       style="opacity:1;vector-effect:none;fill:#3e3e3e;fill-opacity:1;stroke:none;stroke-width:0.34905761;stroke-linecap:butt;stroke-linejoin:miter;stroke-miterlimit:4;stroke-dasharray:none;stroke-dashoffset:0;stroke-opacity:1"
       id="path942"
       cx="5.3011165"
       cy="24.804688"
       r="1.6536459" />
    <circle
       style="opacity:1;vector-effect:none;fill:#3e3e3e;fill-opacity:1;stroke:none;stroke-width:0.34905761;stroke-linecap:butt;stroke-linejoin:miter;stroke-miterlimit:4;stroke-dasharray:none;stroke-dashoffset:0;stroke-opacity:1"
       id="path942-2"
       cx="13.767786"
       cy="24.804688"
       r="1.6536459" />
    <circle
       style="opacity:1;vector-effect:none;fill:#3e3e3e;fill-opacity:1;stroke:none;stroke-width:0.34905761;stroke-linecap:butt;stroke-linejoin:miter;stroke-miterlimit:4;stroke-dasharray:none;stroke-dashoffset:0;stroke-opacity:1"
       id="path942-7"
       cx="44.988621"
       cy="24.804688"
       r="1.6536459" />
    <circle
       style="opacity:1;vector-effect:none;fill:#3e3e3e;fill-opacity:1;stroke:none;stroke-width:0.34905761;stroke-linecap:butt;stroke-linejoin:miter;stroke-miterlimit:4;stroke-dasharray:none;stroke-dashoffset:0;stroke-opacity:1"
       id="path942-2-0"
       cx="53.455292"
       cy="24.804688"
       r="1.6536459" />
    <path
       style="opacity:1;vector-effect:none;fill:#4b4b4b;fill-opacity:1;stroke:none;stroke-width:0.34905761;stroke-linecap:butt;stroke-linejoin:miter;stroke-miterlimit:4;stroke-dasharray:none;stroke-dashoffset:0;stroke-opacity:1"
       d="M 1.0394346,14.646577 H 47.473812 l 2.116666,2.116666 H 1.0394346 Z"
       id="rect817"
       inkscape:connector-curvature="0"
       sodipodi:nodetypes="ccccc" />
    <path
       style="opacity:1;vector-effect:none;fill:#696969;fill-opacity:1;stroke:none;stroke-width:0.34905761;stroke-linecap:butt;stroke-linejoin:miter;stroke-miterlimit:4;stroke-dasharray:none;stroke-dashoffset:0;stroke-opacity:1"
       d="M 1.5686013,15.175744 H 46.944646 l 2.116666,1.587499 H 1.5686013 Z"
       id="rect817-36"
       inkscape:connector-curvature="0"
       sodipodi:nodetypes="ccccc" />
    <path
       style="opacity:1;vector-effect:none;fill:#3e3e3e;fill-opacity:1;stroke:none;stroke-width:0.15929246;stroke-linecap:butt;stroke-linejoin:miter;stroke-miterlimit:4;stroke-dasharray:none;stroke-dashoffset:0;stroke-opacity:1"
       d="m 15.818303,13.531546 h 17.667843 l 0.796297,1.171726 h -18.46414 z"
       id="rect817-3"
       inkscape:connector-curvature="0"
       sodipodi:nodetypes="ccccc" />
    <path
       style="opacity:1;vector-effect:none;fill:#3e3e3e;fill-opacity:1;stroke:none;stroke-width:0.39270008;stroke-linecap:butt;stroke-linejoin:miter;stroke-miterlimit:4;stroke-dasharray:none;stroke-dashoffset:0;stroke-opacity:1"
       d="M 1.0394346,23.113249 H 59.951609 l 2.67905,2.116666 H 1.0394346 Z"
       id="rect817-7"
       inkscape:connector-curvature="0"
       sodipodi:nodetypes="ccccc" />
    <path
       style="opacity:1;vector-effect:none;fill:#8e6235;fill-opacity:1;stroke:none;stroke-width:0.34905761;stroke-linecap:butt;stroke-linejoin:miter;stroke-miterlimit:4;stroke-dasharray:none;stroke-dashoffset:0;stroke-opacity:1"
       d="M 1.0394346,16.234076 H 55.619198 c 6.904061,3.324045 8.811828,5.891076 7.408333,7.9564 H 1.0394346 Z"
       id="rect841"
       inkscape:connector-curvature="0"
       sodipodi:nodetypes="ccccc" />
    <path
       style="opacity:1;vector-effect:none;fill:#cc8b47;fill-opacity:1;stroke:none;stroke-width:0.34905761;stroke-linecap:butt;stroke-linejoin:miter;stroke-miterlimit:4;stroke-dasharray:none;stroke-dashoffset:0;stroke-opacity:1"
       d="M 1.5686013,16.763243 H 55.090028 c 6.904062,3.324045 8.811832,4.832742 7.408334,6.898066 H 1.5686013 Z"
       id="rect841-3"
       inkscape:connector-curvature="0"
       sodipodi:nodetypes="ccccc" />
    <path
       style="opacity:1;vector-effect:none;fill:#535353;fill-opacity:1;stroke:none;stroke-width:0.45103365;stroke-linecap:butt;stroke-linejoin:miter;stroke-miterlimit:4;stroke-dasharray:none;stroke-dashoffset:0;stroke-opacity:1"
       d="M 1.0583333,17.991669 H 47.492708 l 2.11667,3.534077 H 1.0583333 Z"
       id="rect817-6"
       inkscape:connector-curvature="0"
       sodipodi:nodetypes="ccccc" />
    <path
       style="opacity:1;vector-effect:none;fill:#d9dff4;fill-opacity:1;stroke:none;stroke-width:0.34905761;stroke-linecap:butt;stroke-linejoin:miter;stroke-miterlimit:4;stroke-dasharray:none;stroke-dashoffset:0;stroke-opacity:1"
       d="m 1.5683797,20.882963 v 2.078943 H 62.927426 c 0.02551,-0.646079 -0.245917,-1.337383 -0.850596,-2.078943 z"
       id="rect859"
       inkscape:connector-curvature="0"
       sodipodi:nodetypes="ccccc" />
    <path
       inkscape:connector-curvature="0"
       style="opacity:1;vector-effect:none;fill:#8e6235;fill-opacity:1;stroke:none;stroke-width:0.34905761;stroke-linecap:butt;stroke-linejoin:miter;stroke-miterlimit:4;stroke-dasharray:none;stroke-dashoffset:0;stroke-opacity:1"
       d="m 49.363913,16.763318 v 2.38125 h 10.439673 c -1.017273,-0.554513 -3.281122,-1.691658 -4.71341,-2.38125 z"
       id="rect892-1"
       sodipodi:nodetypes="ccccc" />
    <path
       style="opacity:1;vector-effect:none;fill:url(#linearGradient916);fill-opacity:1;stroke:none;stroke-width:0.34905761;stroke-linecap:butt;stroke-linejoin:miter;stroke-miterlimit:4;stroke-dasharray:none;stroke-dashoffset:0;stroke-opacity:1"
       d="m 49.89308,16.763318 v 1.852083 h 8.852172 C 57.72798,18.060888 56.522464,17.45291 55.090176,16.763318 Z"
       id="rect892"
       inkscape:connector-curvature="0"
       sodipodi:nodetypes="ccccc" />
    <rect
       style="opacity:1;vector-effect:none;fill:#4b4b4b;fill-opacity:1;stroke:none;stroke-width:0.34905761;stroke-linecap:butt;stroke-linejoin:miter;stroke-miterlimit:4;stroke-dasharray:none;stroke-dashoffset:0;stroke-opacity:1"
       id="rect872"
       width="13.096735"
       height="3.1264572"
       x="2.8726189"
       y="22.596889"
       ry="1.5632286" />
    <rect
       style="opacity:1;vector-effect:none;fill:#4b4b4b;fill-opacity:1;stroke:none;stroke-width:0.34905761;stroke-linecap:butt;stroke-linejoin:miter;stroke-miterlimit:4;stroke-dasharray:none;stroke-dashoffset:0;stroke-opacity:1"
       id="rect872-7"
       width="13.096735"
       height="3.1264572"
       x="42.56012"
       y="22.596889"
       ry="1.5632286" />
    <rect
       style="opacity:1;vector-effect:none;fill:#6e6e6e;fill-opacity:1;stroke:none;stroke-width:0.29505557;stroke-linecap:butt;stroke-linejoin:miter;stroke-miterlimit:4;stroke-dasharray:none;stroke-dashoffset:0;stroke-opacity:1"
       id="rect872-3"
       width="11.90137"
       height="2.4582834"
       x="3.4703009"
       y="22.930977"
       ry="1.2291417" />
    <rect
       style="opacity:1;vector-effect:none;fill:#6e6e6e;fill-opacity:1;stroke:none;stroke-width:0.2950556;stroke-linecap:butt;stroke-linejoin:miter;stroke-miterlimit:4;stroke-dasharray:none;stroke-dashoffset:0;stroke-opacity:1"
       id="rect872-3-5"
       width="11.90137"
       height="2.4582834"
       x="43.157803"
       y="22.930977"
       ry="1.2291417" />
  </g>
</svg>

<!--Created with Inkscape (http://www.inkscape.org/)--><svg xmlns:dc="http://purl.org/dc/elements/1.1/" xmlns:cc="http://creativecommons.org/ns#" xmlns:rdf="http://www.w3.org/1999/02/22-rdf-syntax-ns#" xmlns="http://www.w3.org/2000/svg" xmlns:xlink="http://www.w3.org/1999/xlink" xmlns:sodipodi="http://sodipodi.sourceforge.net/DTD/sodipodi-0.dtd" xmlns:inkscape="http://www.inkscape.org/namespaces/inkscape" width="240" height="100" viewBox="0 0 63.499999 26.458334" inkscape:version="0.92.1 r15371" sodipodi:docname="loco8.svg"><defs><linearGradient gradientTransform="scale(.26458)" inkscape:collect="always" xlink:href="#a" id="b" x1="202.14369" y1="61.500278" x2="202.14369" y2="70.621521" gradientUnits="userSpaceOnUse"/><linearGradient inkscape:collect="always" id="a"><stop style="stop-color:#e2d1bc;stop-opacity:1" offset="0"/><stop style="stop-color:#e2d4bc;stop-opacity:.64313728" offset="1"/></linearGradient></defs><sodipodi:namedview pagecolor="#ffffff" bordercolor="#666666" borderopacity="1.0" inkscape:pageopacity="0.0" inkscape:pageshadow="2" inkscape:zoom="1.979899" inkscape:cx="4.2913378" inkscape:cy="2.362052" inkscape:document-units="mm" inkscape:current-layer="layer2" showgrid="false" units="px" inkscape:window-width="1884" inkscape:window-height="1051" inkscape:window-x="0" inkscape:window-y="0" inkscape:window-maximized="1" inkscape:snap-global="false"/><metadata><rdf:RDF><cc:Work><dc:format>image/svg+xml</dc:format><dc:type rdf:resource="http://purl.org/dc/dcmitype/StillImage"/><dc:title/><dc:date>2018</dc:date><dc:creator><cc:Agent><dc:title>Timothée Giet</dc:title></cc:Agent></dc:creator><cc:license rdf:resource="http://creativecommons.org/licenses/by-sa/4.0/"/></cc:Work><cc:License rdf:about="http://creativecommons.org/licenses/by-sa/4.0/"><cc:permits rdf:resource="http://creativecommons.org/ns#Reproduction"/><cc:permits rdf:resource="http://creativecommons.org/ns#Distribution"/><cc:requires rdf:resource="http://creativecommons.org/ns#Notice"/><cc:requires rdf:resource="http://creativecommons.org/ns#Attribution"/><cc:permits rdf:resource="http://creativecommons.org/ns#DerivativeWorks"/><cc:requires rdf:resource="http://creativecommons.org/ns#ShareAlike"/></cc:License></rdf:RDF></metadata><g inkscape:groupmode="layer" inkscape:label="Calque 2"><path inkscape:connector-curvature="0" style="opacity:1;vector-effect:none;fill:#4a4a43;fill-opacity:1;stroke:none;stroke-width:.34905761;stroke-linecap:butt;stroke-linejoin:miter;stroke-miterlimit:4;stroke-dasharray:none;stroke-dashoffset:0;stroke-opacity:1" d="M4.876 18.37v2.173H1.153v.661H0V18.37z" sodipodi:nodetypes="ccccccccc"/><circle style="opacity:1;vector-effect:none;fill:#3e3e3e;fill-opacity:1;stroke:none;stroke-width:.34905761;stroke-linecap:butt;stroke-linejoin:miter;stroke-miterlimit:4;stroke-dasharray:none;stroke-dashoffset:0;stroke-opacity:1" cx="5.3011165" cy="24.804688" r="1.6536459"/><circle style="opacity:1;vector-effect:none;fill:#3e3e3e;fill-opacity:1;stroke:none;stroke-width:.34905761;stroke-linecap:butt;stroke-linejoin:miter;stroke-miterlimit:4;stroke-dasharray:none;stroke-dashoffset:0;stroke-opacity:1" cx="13.767786" cy="24.804688" r="1.6536459"/><circle style="opacity:1;vector-effect:none;fill:#3e3e3e;fill-opacity:1;stroke:none;stroke-width:.34905761;stroke-linecap:butt;stroke-linejoin:miter;stroke-miterlimit:4;stroke-dasharray:none;stroke-dashoffset:0;stroke-opacity:1" cx="44.988621" cy="24.804688" r="1.6536459"/><circle style="opacity:1;vector-effect:none;fill:#3e3e3e;fill-opacity:1;stroke:none;stroke-width:.34905761;stroke-linecap:butt;stroke-linejoin:miter;stroke-miterlimit:4;stroke-dasharray:none;stroke-dashoffset:0;stroke-opacity:1" cx="53.455292" cy="24.804688" r="1.6536459"/><path style="opacity:1;vector-effect:none;fill:#4b4b4b;fill-opacity:1;stroke:none;stroke-width:.34905761;stroke-linecap:butt;stroke-linejoin:miter;stroke-miterlimit:4;stroke-dasharray:none;stroke-dashoffset:0;stroke-opacity:1" d="M1.04 14.647h46.434l2.116 2.116H1.04z" inkscape:connector-curvature="0" sodipodi:nodetypes="ccccc"/><path style="opacity:1;vector-effect:none;fill:#696969;fill-opacity:1;stroke:none;stroke-width:.34905761;stroke-linecap:butt;stroke-linejoin:miter;stroke-miterlimit:4;stroke-dasharray:none;stroke-dashoffset:0;stroke-opacity:1" d="M1.569 15.176h45.376l2.116 1.587H1.57z" inkscape:connector-curvature="0" sodipodi:nodetypes="ccccc"/><path style="opacity:1;vector-effect:none;fill:#3e3e3e;fill-opacity:1;stroke:none;stroke-width:.15929246;stroke-linecap:butt;stroke-linejoin:miter;stroke-miterlimit:4;stroke-dasharray:none;stroke-dashoffset:0;stroke-opacity:1" d="M15.818 13.532h17.668l.796 1.171H15.818z" inkscape:connector-curvature="0" sodipodi:nodetypes="ccccc"/><path style="opacity:1;vector-effect:none;fill:#3e3e3e;fill-opacity:1;stroke:none;stroke-width:.39270008;stroke-linecap:butt;stroke-linejoin:miter;stroke-miterlimit:4;stroke-dasharray:none;stroke-dashoffset:0;stroke-opacity:1" d="M1.04 23.113h58.912l2.679 2.117H1.039z" inkscape:connector-curvature="0" sodipodi:nodetypes="ccccc"/><path style="opacity:1;vector-effect:none;fill:#8e6235;fill-opacity:1;stroke:none;stroke-width:.34905761;stroke-linecap:butt;stroke-linejoin:miter;stroke-miterlimit:4;stroke-dasharray:none;stroke-dashoffset:0;stroke-opacity:1" d="M1.04 16.234h54.58c6.903 3.324 8.811 5.891 7.408 7.956H1.039z" inkscape:connector-curvature="0" sodipodi:nodetypes="ccccc"/><path style="opacity:1;vector-effect:none;fill:#cc8b47;fill-opacity:1;stroke:none;stroke-width:.34905761;stroke-linecap:butt;stroke-linejoin:miter;stroke-miterlimit:4;stroke-dasharray:none;stroke-dashoffset:0;stroke-opacity:1" d="M1.569 16.763H55.09c6.904 3.324 8.812 4.833 7.408 6.898H1.568z" inkscape:connector-curvature="0" sodipodi:nodetypes="ccccc"/><path style="opacity:1;vector-effect:none;fill:#535353;fill-opacity:1;stroke:none;stroke-width:.45103365;stroke-linecap:butt;stroke-linejoin:miter;stroke-miterlimit:4;stroke-dasharray:none;stroke-dashoffset:0;stroke-opacity:1" d="M1.058 17.992h46.435l2.116 3.534H1.06z" inkscape:connector-curvature="0" sodipodi:nodetypes="ccccc"/><path style="opacity:1;vector-effect:none;fill:#d9dff4;fill-opacity:1;stroke:none;stroke-width:.34905761;stroke-linecap:butt;stroke-linejoin:miter;stroke-miterlimit:4;stroke-dasharray:none;stroke-dashoffset:0;stroke-opacity:1" d="M1.568 20.883v2.079h61.36c.025-.646-.246-1.337-.851-2.079z" inkscape:connector-curvature="0" sodipodi:nodetypes="ccccc"/><path inkscape:connector-curvature="0" style="opacity:1;vector-effect:none;fill:#8e6235;fill-opacity:1;stroke:none;stroke-width:.34905761;stroke-linecap:butt;stroke-linejoin:miter;stroke-miterlimit:4;stroke-dasharray:none;stroke-dashoffset:0;stroke-opacity:1" d="M49.364 16.763v2.382h10.44c-1.018-.555-3.282-1.692-4.714-2.382z" sodipodi:nodetypes="ccccc"/><path style="opacity:1;vector-effect:none;fill:url(#b);fill-opacity:1;stroke:none;stroke-width:.34905761;stroke-linecap:butt;stroke-linejoin:miter;stroke-miterlimit:4;stroke-dasharray:none;stroke-dashoffset:0;stroke-opacity:1" d="M49.893 16.763v1.852h8.852a82.907 82.907 0 0 0-3.655-1.852z" inkscape:connector-curvature="0" sodipodi:nodetypes="ccccc"/><rect style="opacity:1;vector-effect:none;fill:#4b4b4b;fill-opacity:1;stroke:none;stroke-width:.34905761;stroke-linecap:butt;stroke-linejoin:miter;stroke-miterlimit:4;stroke-dasharray:none;stroke-dashoffset:0;stroke-opacity:1" width="13.096735" height="3.1264572" x="2.8726189" y="22.596889" ry="1.5632286"/><rect style="opacity:1;vector-effect:none;fill:#4b4b4b;fill-opacity:1;stroke:none;stroke-width:.34905761;stroke-linecap:butt;stroke-linejoin:miter;stroke-miterlimit:4;stroke-dasharray:none;stroke-dashoffset:0;stroke-opacity:1" width="13.096735" height="3.1264572" x="42.56012" y="22.596889" ry="1.5632286"/><rect style="opacity:1;vector-effect:none;fill:#6e6e6e;fill-opacity:1;stroke:none;stroke-width:.29505557;stroke-linecap:butt;stroke-linejoin:miter;stroke-miterlimit:4;stroke-dasharray:none;stroke-dashoffset:0;stroke-opacity:1" width="11.90137" height="2.4582834" x="3.4703009" y="22.930977" ry="1.2291417"/><rect style="opacity:1;vector-effect:none;fill:#6e6e6e;fill-opacity:1;stroke:none;stroke-width:.2950556;stroke-linecap:butt;stroke-linejoin:miter;stroke-miterlimit:4;stroke-dasharray:none;stroke-dashoffset:0;stroke-opacity:1" width="11.90137" height="2.4582834" x="43.157803" y="22.930977" ry="1.2291417"/></g></svg>
